X: 1
T: Bury Fair
T: Betty Fair
N: 24-bar version for Rose Galliard
O: 1698
M: 2/2
L: 1/8
K: G
|: e2 "A"| "G"d2B2     B2G2 | "D7"A4   D2e2 | "G"d2B2 "D7"B2AG | "G"G6 :|
|: g2 "B"| "G"d2g2     f2g2 | "D7"a2A2 A2g2 | "G"d2g2 "D7"fgaf | "G"g6 ||
y2 d2 "C"| "C"edcB "Am"cBAG | "D7"AGFE D2d2 | "C"edcB "D7"cBAG | "G"G6 :|
